X:277
T:Lady Day. (p)1687.PLFD.277
M:4/4
L:1/8
Q:1/2=110
S:Playford, Dancing Master,7th Ed,1st Supp,1687.
O:England
H:1687.
Z:Chris Partington
K:D
AG|FGA2A2d2|B4B2AG|FGA2A2g2|e4e2AG|
FGA2A2d2|B4b4|(ab)(af)e2d2|d6:|
|:(AG)|F2D2(FG)(AF)|G2E4F2|GFGA BcdB|c2e4a2|
f2(gf) (ef)(ec)|d2(cB)A2a2|(ab)(af) (ef)(ed)|d6:|
